X: 346
T:Orange & Blue. JaW.345
M:C
Q:150
C:"James Winder"
S:James Winder Ms, Lancashire, 1835-41
R:Rant
O:England
A:Wyresdale,Lancashire
N:"James Winder Written on satve at end of tune..
H:1/8
Z:vmp.Chris Partington, Aug 2004
K:C
gf|ecc2 Gcc2|efge c2c2|fdd2 Bdd2|BGAB G2G2|!
ecc2 Gcc2|efge c2 ((3efg)|afge fdec|BGAB c2c2:|!
|:egg2 egg2|efge c2c2|fga2 fga2|fgaf d2d2|!
efg2 efg2|efge c2 ((3efg)|afge fdec|BGAB c2c2:|]
